material/.icons/material/pulse.svg

<svg xmlns="http://www.w3.org/2000/svg" viewBox="0 0 24 24"><path d="M3 13h2.79l4.31-8.21 1.18 8.96 3.22-4.09L17.83 13H21v2h-4l-2.33-2.33-4.75 6.06-.98-7.42L7 15H3v-2z"/></svg>

<?xml version="1.0" encoding="UTF-8"?><!DOCTYPE svg PUBLIC "-//W3C//DTD SVG 1.1//EN" "http://www.w3.org/Graphics/SVG/1.1/DTD/svg11.dtd"><svg xmlns="http://www.w3.org/2000/svg" xmlns:xlink="http://www.w3.org/1999/xlink" version="1.1" id="mdi-pulse" width="24" height="24" viewBox="0 0 24 24"><path d="M3,13H5.79L10.1,4.79L11.28,13.75L14.5,9.66L17.83,13H21V15H17L14.67,12.67L9.92,18.73L8.94,11.31L7,15H3V13Z" /></svg>
